X: 2103
T: MISS BETTY HUNTER
C:
Q: "Reel."
R: Reel.
%R: reel
B: James Kerr "Merry Melodies" v.2 p.13 #103
Z: 2016 John Chambers <jc:trillian.mit.edu>
M: C
L: 1/8
K: C
uf |\
edcB c2(Gc) | AcGc EDDf |\
edcB c2(Gc) | AcGc ECC ::\
uF |\
ECEG cGAF |
ECEG FDDF |\
[1 ECEG cGAF | EcDF ECC :|\
[2 ECEG cdec | defd ecc |]
